; generated by Slic3r 1.2.9 on 2018-11-07 at 00:32:29

; external perimeters extrusion width = 0.50mm
; perimeters extrusion width = 0.85mm
; infill extrusion width = 1.02mm
; solid infill extrusion width = 0.85mm
; top infill extrusion width = 0.85mm

M107
M190 S60 ; set bed temperature
M104 S200 ; set temperature
G28 ; home all axes
G1 Z5 F5000 ; lift nozzle

M109 S200 ; wait for temperature to be reached
G21 ; set units to millimeters
G90 ; use absolute coordinates
M82 ; use absolute distances for extrusion
G92 E0
;LAYER:0
G1 Z0.350 F7800.000
G1 E-2.00000 F2400.00000
G92 E0
G1 X72.668 Y87.274 F7800.000
G1 E2.00000 F2400.00000
G1 X74.820 Y86.481 E2.20854 F1800.000
G1 X76.000 Y86.375 E2.31625
G1 X122.000 Y86.375 E6.49901
G1 X124.259 Y86.772 E6.70755
G1 X126.247 Y87.915 E6.91610 F1800.000
G1 X127.726 Y89.668 E7.12464
G1 X128.519 Y91.820 E7.33318
G1 X128.625 Y93.000 E7.44089
G1 X128.625 Y107.000 E8.71390
G1 X128.228 Y109.259 E8.92245
G1 X127.085 Y111.247 E9.13099
G1 X125.332 Y112.726 E9.33953
G1 X123.180 Y113.519 E9.54807
G1 X122.000 Y113.625 E9.65578
G1 X76.000 Y113.625 E13.83854
G1 X73.741 Y113.228 E14.04709
G1 X71.753 Y112.085 E14.25563
G1 X70.274 Y110.332 E14.46417
G1 X69.481 Y108.180 E14.67271
G1 X69.375 Y107.000 E14.78042
G1 X69.375 Y93.000 E16.05344
G1 X69.772 Y90.741 E16.26198
G1 X70.915 Y88.753 E16.47052
G1 X72.611 Y87.322 E16.67224
G1 E14.67224 F2400.00000
G92 E0
G1 X120.400 Y105.400 F7800.000
G1 E2.00000 F2400.00000
G1 X77.600 Y105.400 E5.89183 F1800.000
G1 X77.600 Y94.600 E6.87391
G1 X120.400 Y94.600 E10.76573
G1 X120.400 Y105.325 E11.74099
G1 X121.025 Y106.025 F7800.000
G1 X76.975 Y106.025 E15.74646 F1800.000
G1 X76.975 Y93.975 E16.84218
G1 X121.025 Y93.975 E20.84765
G1 X121.025 Y105.950 E21.93655
G1 X121.650 Y106.650 F7800.000
G1 X76.350 Y106.650 E26.05566 F1800.000
G1 X76.350 Y93.350 E27.26503
G1 X121.650 Y93.350 E31.38414
G1 X121.650 Y106.575 E32.58668
G1 X121.217 Y106.400 F7800.000
G1 X120.022 Y95.283 F7800.000
G1 X119.717 Y94.978 E32.62608 F1800.000
G1 X118.829 Y94.978 E32.70713
G1 X120.022 Y96.171 E32.86116
G1 X120.022 Y97.059 E32.94221
G1 X117.941 Y94.978 E33.21085
G1 X117.054 Y94.978 E33.29190
G1 X120.022 Y97.946 E33.67517
G1 X120.022 Y98.834 E33.75622
G1 X116.166 Y94.978 E34.25410
G1 X115.279 Y94.978 E34.33515
G1 X120.022 Y99.721 E34.94766
G1 X120.022 Y100.609 E35.02871
G1 X114.391 Y94.978 E35.75584
G1 X113.504 Y94.978 E35.83688
G1 X120.022 Y101.496 E36.67863
G1 X120.022 Y102.384 E36.75968
G1 X112.616 Y94.978 E37.71605
G1 X111.729 Y94.978 E37.79710
G1 X120.022 Y103.271 E38.86809
G1 X120.022 Y104.159 E38.94914
G1 X110.841 Y94.978 E40.13474
G1 X109.954 Y94.978 E40.21579
G1 X119.989 Y105.014 E41.51185
G1 X119.110 Y105.022 E41.59220
G1 X109.066 Y94.978 E42.88925
G1 X108.179 Y94.978 E42.97030
G1 X118.222 Y105.022 E44.26736
G1 X117.334 Y105.022 E44.34841
G1 X107.291 Y94.978 E45.64546
G1 X106.404 Y94.978 E45.72651
G1 X116.447 Y105.022 E47.02356
G1 X115.559 Y105.022 E47.10461
G1 X105.516 Y94.978 E48.40167
G1 X104.629 Y94.978 E48.48271
G1 X114.672 Y105.022 E49.77977
G1 X113.784 Y105.022 E49.86082
G1 X103.741 Y94.978 E51.15787
G1 X102.854 Y94.978 E51.23892
G1 X112.897 Y105.022 E52.53597
G1 X112.009 Y105.022 E52.61702
G1 X101.966 Y94.978 E53.91408
G1 X101.079 Y94.978 E53.99513
G1 X111.122 Y105.022 E55.29218
G1 X110.234 Y105.022 E55.37323
G1 X100.191 Y94.978 E56.67028
G1 X99.303 Y94.978 E56.75133
G1 X109.347 Y105.022 E58.04839
G1 X108.459 Y105.022 E58.12943
G1 X98.416 Y94.978 E59.42649
G1 X97.528 Y94.978 E59.50754
G1 X107.572 Y105.022 E60.80459
G1 X106.684 Y105.022 E60.88564
G1 X96.641 Y94.978 E62.18269
G1 X95.753 Y94.978 E62.26374
G1 X105.797 Y105.022 E63.56080
G1 X104.909 Y105.022 E63.64185
G1 X94.866 Y94.978 E64.93890
G1 X93.978 Y94.978 E65.01995
G1 X104.022 Y105.022 E66.31700
G1 X103.134 Y105.022 E66.39805
G1 X93.091 Y94.978 E67.69511
G1 X92.203 Y94.978 E67.77615
G1 X102.247 Y105.022 E69.07321
G1 X101.359 Y105.022 E69.15426
G1 X91.316 Y94.978 E70.45131
G1 X90.428 Y94.978 E70.53236
G1 X100.472 Y105.022 E71.82941
G1 X99.584 Y105.022 E71.91046
G1 X89.541 Y94.978 E73.20752
G1 X88.653 Y94.978 E73.28857
G1 X98.696 Y105.022 E74.58562
G1 X97.809 Y105.022 E74.66667
G1 X87.766 Y94.978 E75.96372
G1 X86.878 Y94.978 E76.04477
G1 X96.921 Y105.022 E77.34182
G1 X96.034 Y105.022 E77.42287
G1 X85.991 Y94.978 E78.71993
G1 X85.103 Y94.978 E78.80098
G1 X95.146 Y105.022 E80.09803
G1 X94.259 Y105.022 E80.17908
G1 X84.216 Y94.978 E81.47613
G1 X83.328 Y94.978 E81.55718
G1 X93.371 Y105.022 E82.85424
G1 X92.484 Y105.022 E82.93528
G1 X82.441 Y94.978 E84.23234
G1 X81.553 Y94.978 E84.31339
G1 X91.596 Y105.022 E85.61044
G1 X90.709 Y105.022 E85.69149
G1 X80.665 Y94.978 E86.98854
G1 X79.778 Y94.978 E87.06959
G1 X89.821 Y105.022 E88.36665
G1 X88.934 Y105.022 E88.44770
G1 X78.890 Y94.978 E89.74475
G1 X78.011 Y94.986 E89.82510
G1 X88.046 Y105.022 E91.12115
G1 X87.159 Y105.022 E91.20220
G1 X77.978 Y95.841 E92.38781
G1 X77.978 Y96.729 E92.46886
G1 X86.271 Y105.022 E93.53984
G1 X85.384 Y105.022 E93.62089
G1 X77.978 Y97.616 E94.57725
G1 X77.978 Y98.504 E94.65830
G1 X84.496 Y105.022 E95.50005
G1 X83.609 Y105.022 E95.58110
G1 X77.978 Y99.391 E96.30822
G1 X77.978 Y100.279 E96.38927
G1 X82.721 Y105.022 E97.00177
G1 X81.834 Y105.022 E97.08282
G1 X77.978 Y101.166 E97.58070
G1 X77.978 Y102.054 E97.66175
G1 X80.946 Y105.022 E98.04501
G1 X80.058 Y105.022 E98.12606
G1 X77.978 Y102.942 E98.39470
G1 X77.978 Y103.829 E98.47575
G1 X79.171 Y105.022 E98.62977
G1 X78.283 Y105.022 E98.71082
G1 X77.978 Y104.717 E98.75022
;LAYER:1
G1 Z0.550 F7800.000
G1 X120.311 Y105.311 F7800.000
G1 X77.689 Y105.311 E101.61052 F3600.000
G1 X77.689 Y94.689 E102.32333
G1 X120.311 Y94.689 E105.18363
G1 X120.311 Y105.236 E105.89140
G1 X121.118 Y106.118 F7800.000
G1 X76.882 Y106.118 E108.86002 F3600.000
G1 X76.882 Y93.882 E109.68116
G1 X121.118 Y93.882 E112.64978
G1 X121.118 Y106.043 E113.46588
G1 X121.750 Y106.750 F7800.000
G1 X76.250 Y106.750 E115.19517 F1800.000
G1 X76.250 Y93.250 E115.70825
G1 X121.750 Y93.250 E117.43754
G1 X121.750 Y106.675 E117.94777
G1 X121.317 Y106.500 F7800.000
G1 X119.434 Y104.816 F7800.000
G1 X119.816 Y104.434 E117.98427 F1200.000
G1 X119.816 Y103.286 E118.06172
G1 X118.286 Y104.816 E118.20774
G1 X117.138 Y104.816 E118.28519
G1 X119.816 Y102.138 E118.54075
G1 X119.816 Y100.990 E118.61820
G1 X115.990 Y104.816 E118.98328
G1 X114.843 Y104.816 E119.06073
G1 X119.816 Y99.843 E119.53534
G1 X119.816 Y98.695 E119.61279
G1 X113.695 Y104.816 E120.19693
G1 X112.547 Y104.816 E120.27438
G1 X119.816 Y97.547 E120.96805
G1 X119.816 Y96.400 E121.04550
G1 X111.400 Y104.816 E121.84871
G1 X110.252 Y104.816 E121.92615
G1 X119.816 Y95.252 E122.83889
G1 X118.736 Y95.184 E122.91189
G1 X109.104 Y104.816 E123.83111
G1 X107.956 Y104.816 E123.90856
G1 X117.589 Y95.184 E124.82778
G1 X116.441 Y95.184 E124.90523
G1 X106.809 Y104.816 E125.82445
G1 X105.661 Y104.816 E125.90189
G1 X115.293 Y95.184 E126.82111
G1 X114.145 Y95.184 E126.89856
G1 X104.513 Y104.816 E127.81778
G1 X103.366 Y104.816 E127.89523
G1 X112.998 Y95.184 E128.81445
G1 X111.850 Y95.184 E128.89190
G1 X102.218 Y104.816 E129.81112
G1 X101.070 Y104.816 E129.88856
G1 X110.702 Y95.184 E130.80778
G1 X109.555 Y95.184 E130.88523
G1 X99.922 Y104.816 E131.80445
G1 X98.775 Y104.816 E131.88190
G1 X108.407 Y95.184 E132.80112
G1 X107.259 Y95.184 E132.87857
G1 X97.627 Y104.816 E133.79779
G1 X96.479 Y104.816 E133.87524
G1 X106.111 Y95.184 E134.79445
G1 X104.964 Y95.184 E134.87190
G1 X95.332 Y104.816 E135.79112
G1 X94.184 Y104.816 E135.86857
G1 X103.816 Y95.184 E136.78779
G1 X102.668 Y95.184 E136.86524
G1 X93.036 Y104.816 E137.78446
G1 X91.888 Y104.816 E137.86191
G1 X101.521 Y95.184 E138.78112
G1 X100.373 Y95.184 E138.85857
G1 X90.741 Y104.816 E139.77779
G1 X89.593 Y104.816 E139.85524
G1 X99.225 Y95.184 E140.77446
G1 X98.077 Y95.184 E140.85191
G1 X88.445 Y104.816 E141.77113
G1 X87.298 Y104.816 E141.84858
G1 X96.930 Y95.184 E142.76779
G1 X95.782 Y95.184 E142.84524
G1 X86.150 Y104.816 E143.76446
G1 X85.002 Y104.816 E143.84191
G1 X94.634 Y95.184 E144.76113
G1 X93.487 Y95.184 E144.83858
G1 X83.854 Y104.816 E145.75780
G1 X82.707 Y104.816 E145.83524
G1 X92.339 Y95.184 E146.75446
G1 X91.191 Y95.184 E146.83191
G1 X81.559 Y104.816 E147.75113
G1 X80.411 Y104.816 E147.82858
G1 X90.043 Y95.184 E148.74780
G1 X88.896 Y95.184 E148.82525
G1 X79.264 Y104.816 E149.74447
G1 X78.184 Y104.748 E149.81747
G1 X87.748 Y95.184 E150.73020
G1 X86.600 Y95.184 E150.80765
G1 X78.184 Y103.600 E151.61084
G1 X78.184 Y102.453 E151.68829
G1 X85.453 Y95.184 E152.38196
G1 X84.305 Y95.184 E152.45941
G1 X78.184 Y101.305 E153.04355
G1 X78.184 Y100.157 E153.12100
G1 X83.157 Y95.184 E153.59561
G1 X82.009 Y95.184 E153.67306
G1 X78.184 Y99.009 E154.03814
G1 X78.184 Y97.862 E154.11558
G1 X80.862 Y95.184 E154.37113
G1 X79.714 Y95.184 E154.44858
G1 X78.184 Y96.714 E154.59460
G1 X78.184 Y95.566 E154.67205
G1 X78.566 Y95.184 E154.70854
;LAYER:2
G1 Z0.750 F7800.000
G1 X120.311 Y105.311 F7800.000
G1 X77.689 Y105.311 E157.56884 F3600.000
G1 X77.689 Y94.689 E158.28165
G1 X120.311 Y94.689 E161.14195
G1 X120.311 Y105.236 E161.84972
G1 X121.118 Y106.118 F7800.000
G1 X76.882 Y106.118 E164.81834 F3600.000
G1 X76.882 Y93.882 E165.63948
G1 X121.118 Y93.882 E168.60810
G1 X121.118 Y106.043 E169.42420
G1 X121.750 Y106.750 F7800.000
G1 X76.250 Y106.750 E171.15349 F1800.000
G1 X76.250 Y93.250 E171.66657
G1 X121.750 Y93.250 E173.39586
G1 X121.750 Y106.675 E173.90609
G1 X121.317 Y106.500 F7800.000
G1 X119.816 Y95.566 F7800.000
G1 X119.434 Y95.184 E173.94259 F1200.000
G1 X118.286 Y95.184 E174.02004
G1 X119.816 Y96.714 E174.16606
G1 X119.816 Y97.862 E174.24351
G1 X117.138 Y95.184 E174.49907
G1 X115.990 Y95.184 E174.57652
G1 X119.816 Y99.010 E174.94160
G1 X119.816 Y100.157 E175.01905
G1 X114.843 Y95.184 E175.49366
G1 X113.695 Y95.184 E175.57111
G1 X119.816 Y101.305 E176.15525
G1 X119.816 Y102.453 E176.23270
G1 X112.547 Y95.184 E176.92637
G1 X111.400 Y95.184 E177.00382
G1 X119.816 Y103.600 E177.80703
G1 X119.816 Y104.748 E177.88447
G1 X110.252 Y95.184 E178.79721
G1 X109.104 Y95.184 E178.87466
G1 X118.736 Y104.816 E179.79387
G1 X117.589 Y104.816 E179.87132
G1 X107.956 Y95.184 E180.79054
G1 X106.809 Y95.184 E180.86799
G1 X116.441 Y104.816 E181.78721
G1 X115.293 Y104.816 E181.86466
G1 X105.661 Y95.184 E182.78388
G1 X104.513 Y95.184 E182.86133
G1 X114.145 Y104.816 E183.78054
G1 X112.998 Y104.816 E183.85799
G1 X103.366 Y95.184 E184.77721
G1 X102.218 Y95.184 E184.85466
G1 X111.850 Y104.816 E185.77388
G1 X110.702 Y104.816 E185.85133
G1 X101.070 Y95.184 E186.77055
G1 X99.922 Y95.184 E186.84800
G1 X109.555 Y104.816 E187.76721
G1 X108.407 Y104.816 E187.84466
G1 X98.775 Y95.184 E188.76388
G1 X97.627 Y95.184 E188.84133
G1 X107.259 Y104.816 E189.76055
G1 X106.111 Y104.816 E189.83800
G1 X96.479 Y95.184 E190.75722
G1 X95.332 Y95.184 E190.83467
G1 X104.964 Y104.816 E191.75388
G1 X103.816 Y104.816 E191.83133
G1 X94.184 Y95.184 E192.75055
G1 X93.036 Y95.184 E192.82800
G1 X102.668 Y104.816 E193.74722
G1 X101.521 Y104.816 E193.82467
G1 X91.888 Y95.184 E194.74389
G1 X90.741 Y95.184 E194.82134
G1 X100.373 Y104.816 E195.74055
G1 X99.225 Y104.816 E195.81800
G1 X89.593 Y95.184 E196.73722
G1 X88.445 Y95.184 E196.81467
G1 X98.077 Y104.816 E197.73389
G1 X96.930 Y104.816 E197.81134
G1 X87.298 Y95.184 E198.73056
G1 X86.150 Y95.184 E198.80801
G1 X95.782 Y104.816 E199.72722
G1 X94.634 Y104.816 E199.80467
G1 X85.002 Y95.184 E200.72389
G1 X83.854 Y95.184 E200.80134
G1 X93.487 Y104.816 E201.72056
G1 X92.339 Y104.816 E201.79801
G1 X82.707 Y95.184 E202.71723
G1 X81.559 Y95.184 E202.79468
G1 X91.191 Y104.816 E203.71389
G1 X90.043 Y104.816 E203.79134
G1 X80.411 Y95.184 E204.71056
G1 X79.264 Y95.184 E204.78801
G1 X88.896 Y104.816 E205.70723
G1 X87.748 Y104.816 E205.78468
G1 X78.184 Y95.252 E206.69741
G1 X78.184 Y96.400 E206.77485
G1 X86.600 Y104.816 E207.57805
G1 X85.453 Y104.816 E207.65550
G1 X78.184 Y97.547 E208.34917
G1 X78.184 Y98.695 E208.42662
G1 X84.305 Y104.816 E209.01076
G1 X83.157 Y104.816 E209.08821
G1 X78.184 Y99.843 E209.56282
G1 X78.184 Y100.991 E209.64026
G1 X82.009 Y104.816 E210.00534
G1 X80.862 Y104.816 E210.08279
G1 X78.184 Y102.138 E210.33834
G1 X78.184 Y103.286 E210.41579
G1 X79.714 Y104.816 E210.56181
G1 X78.566 Y104.816 E210.63926
G1 X78.184 Y104.434 E210.67575
M106 S239.7
;LAYER:3
G1 Z0.950 F7800.000
G1 X120.311 Y105.311 F7800.000
G1 X77.689 Y105.311 E213.53605 F3600.000
G1 X77.689 Y94.689 E214.24886
G1 X120.311 Y94.689 E217.10915
G1 X120.311 Y105.236 E217.81693
G1 X121.118 Y106.118 F7800.000
G1 X76.882 Y106.118 E220.78555 F3600.000
G1 X76.882 Y93.882 E221.60669
G1 X121.118 Y93.882 E224.57531
G1 X121.118 Y106.043 E225.39141
G1 X121.750 Y106.750 F7800.000
G1 X76.250 Y106.750 E227.12069 F1800.000
G1 X76.250 Y93.250 E227.63378
G1 X121.750 Y93.250 E229.36307
G1 X121.750 Y106.675 E229.87330
G1 X121.317 Y106.500 F7800.000
G1 X119.537 Y102.386 F7800.000
G1 X119.537 Y100.997 E229.98664 F4800.000
G1 X117.219 Y103.316 E230.25429
G1 X112.839 Y102.142 E230.62445
G1 X110.444 Y104.537 E230.90101
G1 X118.055 Y104.537 E231.52233
G1 X117.913 Y104.010 E231.56693
G1 X119.537 Y102.386 E231.75443
G1 X110.971 Y97.068 F7800.000
G1 X112.577 Y95.462 E231.93975 F4800.000
G1 X111.188 Y95.462 E232.05309
G1 X110.277 Y96.374 E232.15827
G1 X106.877 Y95.462 E232.44562
G1 X105.635 Y95.462 E232.54704
G1 X101.488 Y99.609 E233.02571
G1 X102.662 Y103.989 E233.39587
G1 X102.113 Y104.537 E233.45923
G1 X109.055 Y104.537 E234.02592
G1 X112.145 Y101.448 E234.38262
G1 X110.971 Y97.068 E234.75278
G1 X100.794 Y98.915 F7800.000
G1 X104.246 Y95.462 E235.15130 F4800.000
G1 X95.295 Y95.462 E235.88197
G1 X95.720 Y97.047 E236.01586
G1 X91.311 Y101.455 E236.52483
G1 X86.931 Y100.282 E236.89499
G1 X82.676 Y104.537 E237.38629
G1 X92.645 Y104.537 E238.20014
G1 X92.005 Y102.150 E238.40194
G1 X96.414 Y97.741 E238.91092
G1 X100.794 Y98.915 E239.28108
G1 X86.237 Y99.588 F7800.000
G1 X85.132 Y95.462 E239.62971 F4800.000
G1 X78.462 Y95.462 E240.17413
G1 X78.462 Y103.095 E240.79716
G1 X81.828 Y103.996 E241.08160
G1 X86.237 Y99.588 E241.59058
M106 S163.2
;LAYER:4
G1 Z1.150 F7800.000
G1 X120.311 Y105.311 F7800.000
G1 X77.689 Y105.311 E244.45087 F3600.000
G1 X77.689 Y94.689 E245.16368
G1 X120.311 Y94.689 E248.02398
G1 X120.311 Y105.236 E248.73176
G1 X121.118 Y106.118 F7800.000
G1 X76.882 Y106.118 E251.70038 F3600.000
G1 X76.882 Y93.882 E252.52151
G1 X121.118 Y93.882 E255.49013
G1 X121.118 Y106.043 E256.30623
G1 X121.750 Y106.750 F7800.000
G1 X76.250 Y106.750 E258.03552 F1800.000
G1 X76.250 Y93.250 E258.54861
G1 X121.750 Y93.250 E260.27789
G1 X121.750 Y106.675 E260.78813
G1 X121.317 Y106.500 F7800.000
G1 X119.816 Y95.566 F7800.000
G1 X119.434 Y95.184 E260.82462 F1200.000
G1 X118.286 Y95.184 E260.90207
G1 X119.816 Y96.714 E261.04810
G1 X119.816 Y97.862 E261.12555
G1 X117.138 Y95.184 E261.38110
G1 X115.990 Y95.184 E261.45855
G1 X119.816 Y99.010 E261.82363
G1 X119.816 Y100.157 E261.90108
G1 X114.843 Y95.184 E262.37570
G1 X113.695 Y95.184 E262.45315
G1 X119.816 Y101.305 E263.03729
G1 X119.816 Y102.453 E263.11474
G1 X112.547 Y95.184 E263.80841
G1 X111.400 Y95.184 E263.88586
G1 X119.816 Y103.600 E264.68906
G1 X119.816 Y104.748 E264.76651
G1 X110.252 Y95.184 E265.67924
G1 X109.104 Y95.184 E265.75669
G1 X118.736 Y104.816 E266.67591
G1 X117.589 Y104.816 E266.75336
G1 X107.956 Y95.184 E267.67258
G1 X106.809 Y95.184 E267.75003
G1 X116.441 Y104.816 E268.66924
G1 X115.293 Y104.816 E268.74669
G1 X105.661 Y95.184 E269.66591
G1 X104.513 Y95.184 E269.74336
G1 X114.145 Y104.816 E270.66258
G1 X112.998 Y104.816 E270.74003
G1 X103.366 Y95.184 E271.65925
G1 X102.218 Y95.184 E271.73669
