; generated by PrusaSlicer 2.3.0+win64 on 2021-02-17 at 19:51:00 UTC

; 

; external perimeters extrusion width = 0.45mm
; perimeters extrusion width = 0.45mm
; infill extrusion width = 0.45mm
; solid infill extrusion width = 0.45mm
; top infill extrusion width = 0.40mm
; first layer extrusion width = 0.42mm

M73 P0 R36
M73 Q0 S36
M201 X1000 Y1000 Z200 E5000 ; sets maximum accelerations, mm/sec^2
M203 X200 Y200 Z12 E120 ; sets maximum feedrates, mm/sec
M204 P1250 R1250 T1250 ; sets acceleration (P, T) and retract acceleration (R), mm/sec^2
M205 X8.00 Y8.00 Z0.40 E4.50 ; sets the jerk limits, mm/sec
M205 S0 T0 ; sets the minimum extruding and travel feed rate, mm/sec
M107
;TYPE:Custom
M862.3 P "MK3S" ; printer model check
M862.1 P0.4 ; nozzle diameter check
M115 U3.9.2 ; tell printer latest fw version
G90 ; use absolute coordinates
M83 ; extruder relative mode
M104 S215 ; set extruder temp
M140 S60 ; set bed temp
M190 S60 ; wait for bed temp
M109 S215 ; wait for extruder temp
G28 W ; home all without mesh bed level
G80 ; mesh bed leveling
G1 Y-3.0 F1000.0 ; go outside print area
G92 E0.0
G1 X60.0 E9.0 F1000.0 ; intro line
G1 X100.0 E12.5 F1000.0 ; intro line
G92 E0.0
M221 S95

; Don't change E values below. Excessive value can damage the printer.
M907 E430 ; set extruder motor current
G21 ; set units to millimeters
G90 ; use absolute coordinates
M83 ; use relative distances for extrusion
M900 K0.05 ; Filament gcode LA 1.5
M900 K30 ; Filament gcode LA 1.0
;LAYER_CHANGE
;Z:0.2
;HEIGHT:0.2
;BEFORE_LAYER_CHANGE
G92 E0.0
;0.2


G1 E-0.80000 F2100.000
G1 Z0.400 F10800.000
;AFTER_LAYER_CHANGE
;0.2
G1 X100.192 Y85.666
G1 Z0.200
G1 E0.80000 F2100.000
M204 S1000
;TYPE:Skirt
;WIDTH:0.42
G1 F1200.000
G1 X100.986 Y84.912 E0.03431
G1 X101.863 Y84.308 E0.03340
G1 X105.045 Y82.828 E0.11002
G1 X107.771 Y81.775 E0.09164
G1 X109.591 Y81.172 E0.06010
G1 X111.992 Y80.481 E0.07833
G1 X114.832 Y79.827 E0.09141
G1 X117.694 Y79.335 E0.09105
G1 X119.597 Y79.103 E0.06009
G1 X122.086 Y78.898 E0.07831
G1 X125.004 Y78.815 E0.09154
G1 X127.913 Y78.898 E0.09122
G1 X130.403 Y79.103 E0.07836
G1 X132.308 Y79.335 E0.06016
G1 X135.168 Y79.827 E0.09099
G1 X138.008 Y80.481 E0.09135
G1 X140.410 Y81.172 E0.07837
G1 X142.231 Y81.776 E0.06016
G1 X144.952 Y82.827 E0.09147
G1 X148.137 Y84.308 E0.11012
G1 X149.014 Y84.912 E0.03340
G1 X149.807 Y85.665 E0.03429
G1 X150.539 Y86.651 E0.03849
G1 X151.064 Y87.716 E0.03723
G1 X151.404 Y88.915 E0.03906
G1 X151.522 Y90.183 E0.03994
G1 X151.212 Y93.671 E0.10978
G1 X150.754 Y96.592 E0.09272
G1 X150.034 Y99.854 E0.10475
G1 X148.923 Y103.629 E0.12338
G1 X147.905 Y106.389 E0.09224
G1 X146.725 Y109.098 E0.09265
G1 X144.727 Y112.926 E0.13536
G1 X143.185 Y115.433 E0.09230
G1 X140.884 Y118.661 E0.12428
G1 X138.753 Y121.252 E0.10521
G1 X136.026 Y124.117 E0.12400
G1 X133.560 Y126.372 E0.10478
G1 X131.257 Y128.230 E0.09279
G1 X128.337 Y130.273 E0.11173
G1 X127.576 Y130.642 E0.02651
G1 X126.739 Y130.926 E0.02774
G1 X125.881 Y131.099 E0.02742
G1 X125.003 Y131.157 E0.02758
G1 X124.122 Y131.099 E0.02770
G1 X123.263 Y130.927 E0.02747
G1 X122.423 Y130.642 E0.02779
G1 X121.667 Y130.275 E0.02637
G1 X118.742 Y128.230 E0.11188
G1 X116.441 Y126.373 E0.09272
G1 X113.973 Y124.116 E0.10487
G1 X111.249 Y121.255 E0.12386
G1 X109.116 Y118.661 E0.10530
G1 X106.816 Y115.434 E0.12424
G1 X105.278 Y112.934 E0.09202
G1 X103.450 Y109.458 E0.12314
G1 X102.099 Y106.398 E0.10490
G1 X101.076 Y103.629 E0.09255
G1 X99.965 Y99.853 E0.12340
G1 X99.246 Y96.594 E0.10466
G1 X98.788 Y93.670 E0.09279
G1 X98.478 Y90.183 E0.10976
G1 X98.596 Y88.915 E0.03992
G1 X98.936 Y87.715 E0.03912
G1 X99.461 Y86.651 E0.03719
G1 X100.157 Y85.714 E0.03661
; printing object PALM-Coin-V2.stl id:0 copy 0
;WIPE_START
G1 F8640.000
G1 X100.986 Y84.912 E-0.26632
G1 X101.863 Y84.308 E-0.24594
G1 X102.836 Y83.856 E-0.24774
;WIPE_END
G1 E-0.04000 F2100.000
G1 Z0.600 F10800.000
G1 X122.371 Y114.842
G1 Z0.200
G1 E0.80000 F2100.000
;TYPE:Perimeter
G1 F1200.000
G1 X122.750 Y114.603 E0.01405
G1 X123.150 Y114.401 E0.01405
G1 X123.568 Y114.240 E0.01405
G1 X124.000 Y114.121 E0.01405
G1 X124.442 Y114.044 E0.01407
G1 X124.898 Y114.011 E0.01433
G1 X125.336 Y114.022 E0.01376
G1 X125.780 Y114.077 E0.01403
G1 X126.218 Y114.175 E0.01405
G1 X126.643 Y114.316 E0.01405
G1 X127.053 Y114.497 E0.01405
G1 X127.442 Y114.718 E0.01405
G1 X127.809 Y114.976 E0.01405
G1 X128.148 Y115.269 E0.01405
G1 X128.457 Y115.593 E0.01405
G1 X128.733 Y115.946 E0.01405
G1 X128.972 Y116.325 E0.01405
G1 X129.174 Y116.725 E0.01405
G1 X129.335 Y117.143 E0.01405
G1 X129.454 Y117.575 E0.01405
G1 X129.531 Y118.016 E0.01405
G1 X129.564 Y118.463 E0.01405
G1 X129.553 Y118.911 E0.01405
G1 X129.498 Y119.356 E0.01405
G1 X129.400 Y119.793 E0.01405
G1 X129.259 Y120.218 E0.01405
G1 X129.078 Y120.628 E0.01405
G1 X128.857 Y121.017 E0.01405
G1 X128.599 Y121.384 E0.01405
G1 X128.306 Y121.723 E0.01405
G1 X127.982 Y122.032 E0.01405
G1 X127.629 Y122.308 E0.01405
G1 X127.250 Y122.547 E0.01405
G1 X126.850 Y122.749 E0.01405
G1 X126.432 Y122.910 E0.01405
G1 X126.000 Y123.029 E0.01405
G1 X125.559 Y123.106 E0.01405
G1 X125.112 Y123.139 E0.01405
G1 X124.664 Y123.128 E0.01405
G1 X124.220 Y123.073 E0.01405
G1 X123.782 Y122.975 E0.01405
G1 X123.357 Y122.834 E0.01405
G1 X122.947 Y122.653 E0.01405
G1 X122.558 Y122.432 E0.01405
G1 X122.191 Y122.174 E0.01405
G1 X121.852 Y121.881 E0.01405
G1 X121.543 Y121.557 E0.01405
G1 X121.267 Y121.204 E0.01405
G1 X121.028 Y120.825 E0.01405
G1 X120.826 Y120.425 E0.01405
G1 X120.665 Y120.007 E0.01405
G1 X120.546 Y119.575 E0.01405
G1 X120.469 Y119.134 E0.01405
G1 X120.436 Y118.687 E0.01405
G1 X120.447 Y118.239 E0.01405
G1 X120.502 Y117.795 E0.01405
G1 X120.600 Y117.357 E0.01405
G1 X120.741 Y116.932 E0.01405
G1 X120.922 Y116.522 E0.01405
G1 X121.143 Y116.133 E0.01405
G1 X121.401 Y115.766 E0.01405
G1 X121.694 Y115.427 E0.01405
G1 X122.018 Y115.118 E0.01405
G1 X122.324 Y114.879 E0.01217
G1 X122.556 Y115.177 F10800.000
G1 F1200.000
G1 X122.936 Y114.931 E0.01418
G1 X123.303 Y114.746 E0.01289
G1 X123.686 Y114.599 E0.01289
G1 X124.082 Y114.489 E0.01289
G1 X124.488 Y114.419 E0.01290
G1 X124.907 Y114.388 E0.01316
G1 X125.308 Y114.399 E0.01260
G1 X125.716 Y114.449 E0.01288
G1 X126.117 Y114.539 E0.01289
G1 X126.507 Y114.668 E0.01289
G1 X126.883 Y114.834 E0.01289
G1 X127.240 Y115.037 E0.01289
G1 X127.576 Y115.274 E0.01289
G1 X127.888 Y115.542 E0.01289
G1 X128.171 Y115.840 E0.01289
G1 X128.424 Y116.164 E0.01289
G1 X128.644 Y116.511 E0.01289
G1 X128.829 Y116.878 E0.01289
G1 X128.976 Y117.261 E0.01289
G1 X129.086 Y117.657 E0.01289
G1 X129.156 Y118.062 E0.01289
G1 X129.187 Y118.472 E0.01289
G1 X129.176 Y118.883 E0.01289
G1 X129.126 Y119.291 E0.01289
G1 X129.036 Y119.692 E0.01289
G1 X128.907 Y120.082 E0.01289
G1 X128.741 Y120.458 E0.01289
G1 X128.538 Y120.815 E0.01289
G1 X128.301 Y121.151 E0.01289
G1 X128.033 Y121.463 E0.01289
G1 X127.735 Y121.746 E0.01289
G1 X127.411 Y121.999 E0.01289
G1 X127.064 Y122.219 E0.01289
G1 X126.697 Y122.404 E0.01289
G1 X126.314 Y122.551 E0.01289
G1 X125.918 Y122.661 E0.01289
G1 X125.513 Y122.731 E0.01289
G1 X125.103 Y122.762 E0.01289
G1 X124.692 Y122.751 E0.01289
G1 X124.284 Y122.701 E0.01289
G1 X123.883 Y122.611 E0.01289
G1 X123.493 Y122.482 E0.01289
G1 X123.117 Y122.316 E0.01289
G1 X122.760 Y122.113 E0.01289
G1 X122.424 Y121.876 E0.01289
G1 X122.112 Y121.608 E0.01289
G1 X121.829 Y121.310 E0.01289
G1 X121.576 Y120.986 E0.01289
G1 X121.356 Y120.639 E0.01289
G1 X121.171 Y120.272 E0.01289
G1 X121.024 Y119.889 E0.01289
G1 X120.914 Y119.493 E0.01289
G1 X120.844 Y119.088 E0.01289
G1 X120.813 Y118.678 E0.01289
G1 X120.824 Y118.267 E0.01289
G1 X120.874 Y117.859 E0.01289
G1 X120.964 Y117.458 E0.01289
G1 X121.093 Y117.068 E0.01289
G1 X121.259 Y116.692 E0.01289
G1 X121.462 Y116.335 E0.01289
G1 X121.699 Y115.999 E0.01289
G1 X121.967 Y115.687 E0.01289
G1 X122.265 Y115.404 E0.01289
G1 X122.509 Y115.214 E0.00970
G1 X122.741 Y115.511 F10800.000
;TYPE:External perimeter
G1 F1200.000
G1 X123.122 Y115.260 E0.01431
G1 X123.456 Y115.092 E0.01172
G1 X123.805 Y114.957 E0.01172
G1 X124.165 Y114.857 E0.01172
G1 X124.534 Y114.793 E0.01173
G1 X124.915 Y114.766 E0.01200
G1 X125.280 Y114.775 E0.01145
G1 X125.651 Y114.821 E0.01172
G1 X126.016 Y114.903 E0.01172
G1 X126.371 Y115.020 E0.01172
G1 X126.713 Y115.172 E0.01172
G1 X127.038 Y115.356 E0.01172
G1 X127.344 Y115.571 E0.01172
G1 X127.627 Y115.815 E0.01172
G1 X127.885 Y116.086 E0.01172
G1 X128.115 Y116.381 E0.01172
G1 X128.315 Y116.697 E0.01172
G1 X128.483 Y117.031 E0.01172
G1 X128.618 Y117.380 E0.01172
G1 X128.718 Y117.740 E0.01172
G1 X128.782 Y118.109 E0.01172
G1 X128.809 Y118.482 E0.01172
G1 X128.800 Y118.855 E0.01172
G1 X128.754 Y119.226 E0.01172
G1 X128.672 Y119.591 E0.01172
G1 X128.555 Y119.946 E0.01172
G1 X128.403 Y120.288 E0.01172
G1 X128.219 Y120.614 E0.01172
G1 X128.004 Y120.919 E0.01172
G1 X127.760 Y121.202 E0.01172
G1 X127.489 Y121.460 E0.01172
G1 X127.194 Y121.690 E0.01172
G1 X126.878 Y121.890 E0.01172
G1 X126.544 Y122.058 E0.01172
G1 X126.195 Y122.193 E0.01172
G1 X125.835 Y122.293 E0.01172
G1 X125.466 Y122.357 E0.01172
G1 X125.094 Y122.384 E0.01172
G1 X124.720 Y122.375 E0.01172
G1 X124.349 Y122.329 E0.01172
G1 X123.984 Y122.247 E0.01172
G1 X123.629 Y122.130 E0.01172
G1 X123.287 Y121.978 E0.01172
G1 X122.962 Y121.794 E0.01172
G1 X122.656 Y121.579 E0.01172
G1 X122.373 Y121.335 E0.01172
G1 X122.115 Y121.064 E0.01172
G1 X121.885 Y120.769 E0.01172
G1 X121.685 Y120.453 E0.01172
G1 X121.517 Y120.119 E0.01172
G1 X121.382 Y119.770 E0.01172
G1 X121.282 Y119.410 E0.01172
G1 X121.218 Y119.041 E0.01172
G1 X121.191 Y118.669 E0.01172
G1 X121.200 Y118.295 E0.01172
G1 X121.246 Y117.924 E0.01172
G1 X121.328 Y117.559 E0.01172
G1 X121.445 Y117.204 E0.01172
G1 X121.597 Y116.862 E0.01172
G1 X121.781 Y116.537 E0.01172
G1 X121.996 Y116.231 E0.01172
G1 X122.240 Y115.948 E0.01172
G1 X122.511 Y115.690 E0.01172
G1 X122.693 Y115.548 E0.00724
G1 X122.699 Y115.113 F10800.000
;WIPE_START
G1 F8640.000
G1 X123.122 Y115.260 E-0.11923
G1 X123.456 Y115.092 E-0.08634
G1 X123.805 Y114.957 E-0.08634
G1 X124.165 Y114.857 E-0.08634
G1 X124.534 Y114.793 E-0.08638
G1 X124.915 Y114.766 E-0.08834
G1 X125.280 Y114.775 E-0.08432
G1 X125.651 Y114.821 E-0.08632
G1 X125.805 Y114.855 E-0.03639
;WIPE_END
G1 E-0.04000 F2100.000
G1 Z0.600 F10800.000
G1 X116.733 Y121.583
G1 Z0.200
G1 E0.80000 F2100.000
;TYPE:Perimeter
G1 F1200.000
G1 X115.875 Y120.735 E0.03784
G1 X114.941 Y119.758 E0.04236
G1 X114.035 Y118.757 E0.04234
G1 X113.109 Y117.670 E0.04478
G1 X112.308 Y116.678 E0.03997
G1 X111.490 Y115.602 E0.04236
G1 X110.703 Y114.505 E0.04236
G1 X109.946 Y113.385 E0.04236
G1 X109.222 Y112.245 E0.04236
G1 X108.530 Y111.084 E0.04236
G1 X107.871 Y109.905 E0.04236
G1 X107.245 Y108.707 E0.04236
G1 X106.654 Y107.492 E0.04237
G1 X106.128 Y106.331 E0.03997
G1 X105.575 Y105.014 E0.04478
M73 Q1 S36
G1 X105.089 Y103.755 E0.04234
G1 X104.638 Y102.481 E0.04236
G1 X104.223 Y101.195 E0.04236
G1 X103.845 Y99.898 E0.04236
M73 P1 R36
G1 X103.503 Y98.591 E0.04236
G1 X103.199 Y97.274 E0.04236
G1 X102.931 Y95.950 E0.04236
G1 X102.702 Y94.619 E0.04236
G1 X102.510 Y93.281 E0.04236
G1 X102.355 Y91.939 E0.04236
G1 X102.239 Y90.594 E0.04233
G1 X102.232 Y90.190 E0.01267
G1 X102.257 Y89.876 E0.00987
G1 X102.325 Y89.509 E0.01172
G1 X102.430 Y89.162 E0.01137
G1 X102.574 Y88.831 E0.01131
G1 X102.751 Y88.525 E0.01109
G1 X102.965 Y88.236 E0.01127
G1 X103.213 Y87.971 E0.01137
G1 X103.497 Y87.728 E0.01174
G1 X103.972 Y87.424 E0.01765
G1 X105.334 Y86.781 E0.04724
G1 X106.572 Y86.245 E0.04231
G1 X107.826 Y85.743 E0.04234
G1 X109.167 Y85.251 E0.04477
G1 X110.375 Y84.845 E0.03997
G1 X111.667 Y84.450 E0.04237
G1 X112.970 Y84.093 E0.04236
G1 X114.282 Y83.772 E0.04236
G1 X115.603 Y83.488 E0.04234
G1 X117.007 Y83.229 E0.04478
G1 X118.267 Y83.033 E0.03997
G1 X119.607 Y82.861 E0.04236
G1 X120.951 Y82.728 E0.04236
G1 X122.299 Y82.633 E0.04236
G1 X123.649 Y82.576 E0.04236
G1 X125.000 Y82.557 E0.04236
G1 X126.275 Y82.575 E0.03997
G1 X127.702 Y82.633 E0.04478
G1 X129.049 Y82.728 E0.04234
G1 X130.393 Y82.861 E0.04236
G1 X131.733 Y83.033 E0.04236
G1 X132.993 Y83.229 E0.03997
G1 X134.397 Y83.488 E0.04478
G1 X135.718 Y83.772 E0.04235
G1 X136.956 Y84.074 E0.03997
G1 X138.333 Y84.451 E0.04477
G1 X139.625 Y84.845 E0.04235
G1 X140.833 Y85.251 E0.03997
G1 X142.174 Y85.743 E0.04477
G1 X143.428 Y86.245 E0.04235
G1 X144.598 Y86.751 E0.03996
G1 X145.883 Y87.351 E0.04446
G1 X146.352 Y87.622 E0.01700
G1 X146.749 Y87.935 E0.01586
G1 X146.996 Y88.190 E0.01112
G1 X147.215 Y88.474 E0.01126
G1 X147.402 Y88.784 E0.01134
G1 X147.525 Y89.046 E0.00906
G1 X147.644 Y89.391 E0.01146
G1 X147.724 Y89.750 E0.01153
G1 X147.766 Y90.128 E0.01191
G1 X147.769 Y90.444 E0.00991
G1 X147.645 Y91.941 E0.04710
G1 X147.490 Y93.281 E0.04231
G1 X147.298 Y94.619 E0.04236
G1 X147.069 Y95.950 E0.04236
G1 X146.801 Y97.274 E0.04236
G1 X146.497 Y98.591 E0.04236
G1 X146.155 Y99.897 E0.04234
G1 X145.754 Y101.268 E0.04477
G1 X145.362 Y102.481 E0.03997
G1 X144.911 Y103.755 E0.04237
G1 X144.425 Y105.015 E0.04236
G1 X143.903 Y106.261 E0.04236
G1 X143.346 Y107.492 E0.04236
G1 X142.755 Y108.707 E0.04236
G1 X142.129 Y109.905 E0.04236
G1 X141.470 Y111.084 E0.04236
G1 X140.778 Y112.245 E0.04236
G1 X140.054 Y113.385 E0.04236
G1 X139.297 Y114.505 E0.04237
G1 X138.554 Y115.540 E0.03997
G1 X137.691 Y116.678 E0.04478
G1 X136.843 Y117.729 E0.04234
G1 X135.966 Y118.756 E0.04236
G1 X135.059 Y119.758 E0.04236
G1 X134.125 Y120.735 E0.04236
G1 X133.164 Y121.684 E0.04237
G1 X132.232 Y122.554 E0.03997
G1 X131.162 Y123.500 E0.04477
G1 X130.125 Y124.364 E0.04235
G1 X129.123 Y125.152 E0.03996
G1 X127.978 Y126.003 E0.04472
G1 X126.755 Y126.851 E0.04667
G1 X126.294 Y127.096 E0.01637
G1 X125.829 Y127.261 E0.01546
G1 X125.357 Y127.352 E0.01509
G1 X124.881 Y127.370 E0.01492
G1 X124.406 Y127.316 E0.01498
G1 X123.937 Y127.188 E0.01525
G1 X123.475 Y126.984 E0.01584
G1 X123.055 Y126.726 E0.01546
G1 X122.023 Y126.004 E0.03949
G1 X120.937 Y125.199 E0.04237
G1 X119.876 Y124.365 E0.04234
G1 X118.780 Y123.449 E0.04477
G1 X117.824 Y122.606 E0.03997
G1 X116.776 Y121.625 E0.04501
G1 X116.511 Y121.893 F10800.000
G1 F1200.000
G1 X115.606 Y120.999 E0.03989
G1 X114.664 Y120.015 E0.04270
G1 X113.751 Y119.006 E0.04268
G1 X112.818 Y117.910 E0.04511
G1 X112.012 Y116.910 E0.04029
G1 X111.187 Y115.827 E0.04270
G1 X110.393 Y114.720 E0.04269
G1 X109.631 Y113.592 E0.04270
G1 X108.901 Y112.442 E0.04270
G1 X108.203 Y111.273 E0.04270
G1 X107.539 Y110.084 E0.04270
G1 X106.909 Y108.877 E0.04270
G1 X106.313 Y107.652 E0.04270
G1 X105.783 Y106.482 E0.04029
G1 X105.225 Y105.155 E0.04511
G1 X104.735 Y103.885 E0.04268
G1 X104.280 Y102.602 E0.04270
G1 X103.862 Y101.306 E0.04270
G1 X103.481 Y99.998 E0.04270
G1 X103.137 Y98.681 E0.04270
G1 X102.830 Y97.354 E0.04270
G1 X102.561 Y96.019 E0.04270
G1 X102.329 Y94.677 E0.04270
G1 X102.136 Y93.330 E0.04270
G1 X101.980 Y91.977 E0.04269
G1 X101.863 Y90.614 E0.04289
G1 X101.854 Y90.178 E0.01365
G1 X101.883 Y89.827 E0.01106
G1 X101.958 Y89.419 E0.01299
G1 X102.076 Y89.031 E0.01271
G1 X102.237 Y88.661 E0.01266
G1 X102.435 Y88.317 E0.01244
G1 X102.675 Y87.994 E0.01262
G1 X102.952 Y87.698 E0.01271
G1 X103.267 Y87.429 E0.01300
G1 X103.555 Y87.230 E0.01097
G1 X103.797 Y87.090 E0.00875
G1 X105.179 Y86.438 E0.04791
G1 X106.427 Y85.897 E0.04266
G1 X107.691 Y85.390 E0.04268
G1 X109.042 Y84.895 E0.04511
G1 X110.260 Y84.486 E0.04029
G1 X111.562 Y84.088 E0.04270
G1 X112.875 Y83.728 E0.04270
G1 X114.198 Y83.404 E0.04270
G1 X115.529 Y83.118 E0.04268
G1 X116.944 Y82.858 E0.04511
G1 X118.214 Y82.659 E0.04029
G1 X119.564 Y82.487 E0.04270
G1 X120.919 Y82.353 E0.04269
G1 X122.278 Y82.257 E0.04270
G1 X123.638 Y82.199 E0.04270
G1 X125.000 Y82.180 E0.04270
G1 X126.285 Y82.198 E0.04029
G1 X127.723 Y82.257 E0.04511
G1 X129.081 Y82.353 E0.04268
G1 X130.436 Y82.487 E0.04269
G1 X131.786 Y82.659 E0.04270
G1 X133.056 Y82.858 E0.04029
G1 X134.471 Y83.118 E0.04511
G1 X135.802 Y83.404 E0.04269
G1 X137.050 Y83.709 E0.04029
G1 X138.438 Y84.088 E0.04511
G1 X139.740 Y84.486 E0.04269
G1 X140.958 Y84.895 E0.04029
G1 X142.309 Y85.390 E0.04511
G1 X143.573 Y85.897 E0.04269
